svgs/simpledraw.svg

<svg xmlns="http://www.w3.org/2000/svg" viewBox="0 0 192 192"><path d="M133.678 18.025a5.088 5.088 0 0 1 2.308-1.344 5.162 5.162 0 0 1 2.686 0 5.088 5.088 0 0 1 2.308 1.344l32.945 32.199a4.933 4.933 0 0 1 1.396 2.267c.246.866.246 1.78 0 2.646a4.933 4.933 0 0 1-1.396 2.267l-21.993 21.494-40.29-39.378ZM111.686 39.52l40.29 39.249-7.345 7.18-40.247-39.379Zm32.945 46.558-79.174 77.38-48.956 12.037 10.953-53.736 76.93-75.103m-76.93 75.146 38.003 41.613m43.15-95.35L49.49 125.843m72.18-45.01-59.116 57.821" fill="none" stroke="#000" stroke-width="12" stroke-linecap="round" stroke-linejoin="round"/></svg>

<svg
    xmlns="http://www.w3.org/2000/svg"
    viewBox="0 0 192 192"
    id="vector">
    <path
        id="path"
        d="M 133.678 18.025 C 134.309 17.382 135.107 16.918 135.986 16.681 C 136.865 16.444 137.793 16.444 138.672 16.681 C 139.551 16.918 140.349 17.382 140.98 18.025 L 173.925 50.224 C 174.592 50.842 175.075 51.626 175.321 52.491 C 175.567 53.357 175.567 54.271 175.321 55.137 C 175.075 56.002 174.592 56.786 173.925 57.404 L 151.932 78.898 L 111.642 39.52 Z M 111.686 39.52 L 151.976 78.769 L 144.631 85.949 L 104.384 46.57 Z M 144.631 86.078 L 65.457 163.458 L 16.501 175.495 L 27.454 121.759 L 104.384 46.656 M 27.454 121.802 L 65.457 163.415 M 108.607 68.065 L 49.49 125.843 M 121.67 80.833 L 62.554 138.654"
        fill="none"
        stroke="#000000"
        stroke-width="12"
        stroke-linecap="round"
        stroke-linejoin="round"/>
</svg>
